githubassets/type-phone.svg

<?xml version="1.0" encoding="UTF-8" standalone="no"?>
<svg
   width="180pt"
   height="180pt"
   version="1.0"
   viewBox="0 0 180 180"
   id="svg1077"
   sodipodi:docname="type-phone.svg"
   inkscape:version="1.1.1 (3bf5ae0d25, 2021-09-20)"
   xmlns:inkscape="http://www.inkscape.org/namespaces/inkscape"
   xmlns:sodipodi="http://sodipodi.sourceforge.net/DTD/sodipodi-0.dtd"
   xmlns="http://www.w3.org/2000/svg"
   xmlns:svg="http://www.w3.org/2000/svg">
  <defs
     id="defs1081" />
  <sodipodi:namedview
     id="namedview1079"
     pagecolor="#ffffff"
     bordercolor="#666666"
     borderopacity="1.0"
     inkscape:pageshadow="2"
     inkscape:pageopacity="0.0"
     inkscape:pagecheckerboard="0"
     inkscape:document-units="pt"
     showgrid="false"
     inkscape:zoom="2.5721009"
     inkscape:cx="60.456415"
     inkscape:cy="199.05906"
     inkscape:window-width="1654"
     inkscape:window-height="1338"
     inkscape:window-x="1205"
     inkscape:window-y="23"
     inkscape:window-maximized="0"
     inkscape:current-layer="svg1077" />
  <g
     transform="matrix(0.13694963,0,0,-0.13694963,-33.254663,213.25466)"
     id="g1075">
    <path
       d="M 510.00002,1506.406 V 302.73192 c 0,-45.26189 16.26719,-57.73196 63.71134,-57.73196 H 1241 c 30.941,0 49,15.759 49,49 V 1508.0618 c 0,31.357 -16.47,46.9382 -49,46.9382 H 559.00003 c -33.299,0 -49.00001,-16.991 -49.00001,-48.594 z m 670.52118,-68.2368 V 369.56989 H 622.15882 V 1438.1692 Z M 1076.8013,318.92531 c 10.5288,0 10.7652,-27.91174 0.1919,-27.91174 l -318.4237,0.26663 c -11.25199,0 -11.23892,27.64511 -0.17989,27.64511"
       id="path1073"
       sodipodi:nodetypes="sccssssssccccccccc" />
  </g>
</svg>

<?xml version="1.0" encoding="UTF-8"?>
<svg width="180pt" height="180pt" version="1.0" viewBox="0 0 180 180" xmlns="http://www.w3.org/2000/svg">
<g transform="matrix(.13695 0 0 -.13695 -33.255 213.25)">
<path d="m510 1506.4v-1203.7c0-45.262 16.267-57.732 63.711-57.732h667.29c30.941 0 49 15.759 49 49v1214.1c0 31.357-16.47 46.938-49 46.938h-682c-33.299 0-49-16.991-49-48.594zm670.52-68.237v-1068.6h-558.36v1068.6zm-103.72-1119.2c10.529 0 10.765-27.912 0.1919-27.912l-318.42 0.26663c-11.252 0-11.239 27.645-0.17989 27.645"/>
</g>
</svg>
